assets/img/braze_icons/help-hexagon.svg

<svg fill="none" height="24" viewBox="0 0 24 24" width="24" xmlns="http://www.w3.org/2000/svg"><path clip-rule="evenodd" d="m12.4029 1.18492c-.2658-.05467-.54-.05467-.8058 0-.3073.0632-.5819.21703-.8003.33932l-.0595.03325-7.39997 4.11111-.06314.03487c-.23113.12731-.52175.28738-.74492.52956-.19295.20938-.33897.45754-.4283.72789-.10332.31271-.10211.64449-.10115.90836l.00018.07213v8.11709l-.00018.0721c-.00096.2639-.00217.5957.10115.9084.08933.2704.23535.5185.4283.7279.22316.2422.51376.4022.74489.5295l.06317.0349 7.39997 4.1111.0595.0333c.2184.1223.493.2761.8003.3393.2658.0547.54.0547.8058 0 .3073-.0632.5819-.217.8003-.3393l.0595-.0333 7.4-4.1111.0631-.0348c.2311-.1274.5218-.2874.7449-.5296.193-.2094.339-.4575.4283-.7279.1033-.3127.1021-.6445.1012-.9084l-.0002-.0721v-8.11709l.0002-.07213c.0009-.26387.0021-.59565-.1012-.90836-.0893-.27035-.2353-.51851-.4283-.72789-.2231-.24218-.5138-.40225-.7449-.52956l-.0631-.03487-7.4-4.11111-.0595-.03325c-.2184-.12229-.493-.27612-.8003-.33932zm-1.4963 7.08631c.4072-.23932.886-.3268 1.3515-.24695s.8878.32187 1.1919.68321c.3042.36134.4707.81866.47 1.29098v.00149c0 .46914-.3651.95824-1.0547 1.41794-.3144.2096-.6359.371-.8827.4807-.122.0543-.2223.0943-.2897.12-.0299.0114-.06.0224-.0902.033-.5233.1751-.8059.741-.6314 1.2646.1747.5239.741.8071 1.2649.6324l.1687-.061c.0966-.0368.2307-.0905.39-.1613.3156-.1403.7442-.3539 1.1798-.6443.8102-.5401 1.9448-1.5508 1.9453-3.0811.0013-.94446-.3317-1.85889-.9399-2.58141-.6084-.72267-1.4528-1.20672-2.3839-1.36642-.931-.1597-1.8885.01526-2.70293.49389-.81441.47863-1.43314 1.23005-1.74661 2.12116-.18327.52099.0905 1.0919.61149 1.27518.52099.1833 1.09191-.09051 1.27515-.61149.1568-.44556.4661-.82127.8733-1.06058zm1.0934 7.72877c-.5523 0-1 .4477-1 1 0 .5522.4477 1 1 1h.01c.5523 0 1-.4478 1-1 0-.5523-.4477-1-1-1z" fill="#801ed7" fill-rule="evenodd"/></svg>

<svg width="24" height="24" viewBox="0 0 24 24" fill="none" xmlns="http://www.w3.org/2000/svg">
<path fill-rule="evenodd" clip-rule="evenodd" d="M12.4029 1.18492C12.1371 1.13025 11.8629 1.13025 11.5971 1.18492C11.2898 1.24812 11.0152 1.40195 10.7968 1.52424L10.7373 1.55749L3.33733 5.6686L3.27419 5.70347C3.04306 5.83078 2.75244 5.99085 2.52927 6.23303C2.33632 6.44241 2.1903 6.69057 2.10097 6.96092C1.99765 7.27363 1.99886 7.60541 1.99982 7.86928L2 7.94141V16.0585L1.99982 16.1306C1.99886 16.3945 1.99765 16.7263 2.10097 17.039C2.1903 17.3094 2.33632 17.5575 2.52927 17.7669C2.75243 18.0091 3.04303 18.1691 3.27416 18.2964L3.33733 18.3313L10.7373 22.4424L10.7968 22.4757C11.0152 22.598 11.2898 22.7518 11.5971 22.815C11.8629 22.8697 12.1371 22.8697 12.4029 22.815C12.7102 22.7518 12.9848 22.598 13.2032 22.4757L13.2627 22.4424L20.6627 18.3313L20.7258 18.2965C20.9569 18.1691 21.2476 18.0091 21.4707 17.7669C21.6637 17.5575 21.8097 17.3094 21.899 17.039C22.0023 16.7263 22.0011 16.3945 22.0002 16.1306L22 16.0585V7.94141L22.0002 7.86928C22.0011 7.60541 22.0023 7.27363 21.899 6.96092C21.8097 6.69057 21.6637 6.44241 21.4707 6.23303C21.2476 5.99085 20.9569 5.83078 20.7258 5.70347L20.6627 5.6686L13.2627 1.55749L13.2032 1.52424C12.9848 1.40195 12.7102 1.24812 12.4029 1.18492ZM10.9066 8.27123C11.3138 8.03191 11.7926 7.94443 12.2581 8.02428C12.7236 8.10413 13.1459 8.34615 13.45 8.70749C13.7542 9.06883 13.9207 9.52615 13.92 9.99847L13.92 9.99996C13.92 10.4691 13.5549 10.9582 12.8653 11.4179C12.5509 11.6275 12.2294 11.7889 11.9826 11.8986C11.8606 11.9529 11.7603 11.9929 11.6929 12.0186C11.663 12.03 11.6329 12.041 11.6027 12.0516C11.0794 12.2267 10.7968 12.7926 10.9713 13.3162C11.146 13.8401 11.7123 14.1233 12.2362 13.9486L12.4049 13.8876C12.5015 13.8508 12.6356 13.7971 12.7949 13.7263C13.1105 13.586 13.5391 13.3724 13.9747 13.082C14.7849 12.5419 15.9195 11.5312 15.92 10.0009C15.9213 9.05644 15.5883 8.14201 14.9801 7.41949C14.3717 6.69682 13.5273 6.21277 12.5962 6.05307C11.6652 5.89337 10.7077 6.06833 9.89327 6.54696C9.07886 7.02559 8.46013 7.77701 8.14666 8.66812C7.96339 9.18911 8.23716 9.76002 8.75815 9.9433C9.27914 10.1266 9.85006 9.85279 10.0333 9.33181C10.1901 8.88625 10.4994 8.51054 10.9066 8.27123ZM12 16C11.4477 16 11 16.4477 11 17C11 17.5522 11.4477 18 12 18H12.01C12.5623 18 13.01 17.5522 13.01 17C13.01 16.4477 12.5623 16 12.01 16H12Z" fill="#801ED7"/>
</svg>
